X:1
T:The Murder of Sarah Vail
M:3/4
L:1/8
K:Bb
 FFG| F2 C2(2E3.99999962500005/5.99999925000009E3.99999962500005/5.99999925000009D3.99999962500005/5.99999925000009 C3.99999962500005/5.99999925000009|\
 B,3 B,E F| E2 B,2 E3/2 G/2| F3 FD F| B2 c2| A/2 G3/2| C2 C2 FG| F2 CE DC|\
 B,3||
